X: 37998
T: Speed The Plough
R: reel
M: 4/4
K: Amajor
|:E2|A2Ac efec|eaec efec|dfdB cecA|dcBA GABC|
A2Ac efec|eaec efec|dfdB cecA|cBAG A2:|
|:e2|aAaA aAce|aAgA fAeA|dfdB cecA|dcBA GABd|
(3cBA eA fAeA|fgaf ecAc|decd BcAB|FAGB A2:|

